X:1
T:Blest Be the Tie That Binds
T:Text: John Fawcett, 1782 Tune: attr. Johann G. Nägeli, 1828
T:SM DENNIS www.hymnary.org/text/blest_be_the_tie_that_binds
T:Blest Be the Tie That Binds
T:This hymn is in the public domain.  You may freely use this score for personal and congregational worship.  If you reproduce the score, please credit Hymnary.org as the source. 
T:This hymn is in the public domain.  You may freely use this score for personal and congregational worship.  If you reproduce the score, please credit Hymnary.org as the source. 
Z:This hymn is in the public domain.  You may freely use this score for personal and congregational worship.  If you reproduce the score, please credit Hymnary.org as the source.
%%score ( 1 2 ) ( 3 4 )
L:1/8
M:3/4
K:F
V:1 treble nm="SOPRANO ALTO" snm="S. A."
V:2 treble 
V:3 bass nm="TENOR BASS" snm="T. B."
V:4 bass 
V:1
"^Capo 3:""^1""^2""^3""^4" A2 |"^F(D)" (A2 F2) A2 |"^C7(A7)" (G2 E2) G2 |"^F(D)" F4 F2 | %4
w: Blest|be * the|tie * that|binds our|
w: Be-|fore * our|Fa- * ther's|throne we|
w: We|share * our|mu- * tual|woes, our|
w: When|we * are|called * to|part, it|
"^Bb(G)" (F2 D2) F2 |"^F(D)" (F2 C2) F2 |"^C(A)" E4 G2 |"^C7(A7)" (G2 E2) G2 |"^F(D)" (F2 A2) c2 |1 %9
w: hearts * in|Chris- * tian|love; the|fel- * low-|ship * of|
w: pour * our|ar- * dent|prayers; our|fears, * our|hopes, * our|
w: mu- * tual|bur- * dens|bear, and|of- * ten|for * each|
w: gives * us|in- * ward|pain; but|we * shall|still * be|
"^C(A)" (c2 G2) B2 |"^F(D)" (A2 c2)"^Bb(G)" d2 |"^F(D)" (c2 A2)"^Bb(G)" B2 | %12
w: kin- * dred|minds * is|like * to|
w: aims * are|one, * our|com- * forts|
w: oth- * er|flows * the|sym- * pa-|
w: joined * in|heart, * and|hope * to|
"^F/C(D/A)" (A2 F2)"^C7(A7)" G2 |"^F(D)" F4 x2 |] %14
w: that * a-|bove.|
w: and * our|cares.|
w: thiz- * ing|tear.|
w: meet * a-|gain.|
V:2
 F2 | (F2 C2) F2 | (E2 C2) C2 | C4 _E2 | (D2 B,2) D2 | (C2 A,2) C2 | C4 E2 | (E2 C2) C2 | %8
 (C2 F2) F2 |1 E4 G2 | F4 F2 | F4 F2 | (F2 C2) C2 | C4 x2 |] %14
V:3
 C2 | (C2 A,2) C2 | (C2 G,2) B,2 | A,4 A,2 | (B,2 F,2) B,2 | (A,2 F,2) A,2 | G,4 C2 | %7
 (C2 G,2) B,2 | (A,2 C2) A,2 |1 (G,2 C2) C2 | %10
 (C2 A,2)"^5 This glorious hope revives our courage by the way; while each in expectation lives and waits to see the day. 6 From sorrow, toil, and pain, and sin, we shall be free; and perfect love and friendship reign through all eternity." B,2 | %11
 (A,2 C2) D2 | (C2 A,2) B,2 | A,4 x2 |] %14
V:4
 F,2 | F,4 F,2 | E,4 C,2 | F,4 F,2 | B,,4 B,,2 | F,4 F,2 | C,4 C,2 | C,4 C,2 | F,4 C,2 |1 C,4 C,2 | %10
 F,4 F,2 | F,4 B,,2 | C,4 C,2 | F,4 x2 |] %14

